X:8400
T:Kas a-barh
C:Trad 4, 14
M:4/4
L:1/8
K:C
A2GA B2Bd| cBAG ABcd|\
AAGA B2Bd |1 ccBB A4:|2 cc~B2 ABcd\
|:e2ce f3e| (3ddd cd e2~c2|
~A2GA B2Bd |cB AG AB cd|\
ec eg ag fe| dG (3GGG ef ed|\
 c2cA BG Bd |1 cc~B2 AB cd:|2  cc~B2 A4||
